img/svg/email-ico-48.svg

<svg width="48" height="48" viewBox="0 0 48 48" fill="none" xmlns="http://www.w3.org/2000/svg">
<path d="M35.9844 25.7305C36.5453 25.7305 37 25.2758 37 24.7148V18.0625C37 15.8224 35.1776 14 32.9375 14H15.0625C12.8224 14 11 15.8224 11 18.0625V29.793C11 32.033 12.8224 33.8555 15.0625 33.8555H32.9375C35.1776 33.8555 37 32.033 37 29.793C37 29.232 36.5453 28.7773 35.9844 28.7773C35.4234 28.7773 34.9688 29.232 34.9688 29.793C34.9688 30.913 34.0575 31.8242 32.9375 31.8242H15.0625C13.9425 31.8242 13.0312 30.913 13.0312 29.793V18.2777L21.8547 23.7644C22.5164 24.1758 23.2582 24.3815 24 24.3815C24.7418 24.3815 25.4836 24.1758 26.1453 23.7644L34.9688 18.2777V24.7148C34.9688 25.2758 35.4234 25.7305 35.9844 25.7305ZM25.0726 22.0394C24.411 22.4508 23.589 22.4508 22.9274 22.0394L13.8787 16.4127C14.2123 16.1727 14.6212 16.0312 15.0625 16.0312H32.9375C33.3788 16.0312 33.7877 16.1728 34.1213 16.4128L25.0726 22.0394Z" fill="#E0E0E0"/>
</svg>

<svg width="48" height="48" fill="none" xmlns="http://www.w3.org/2000/svg"><path d="M35.984 25.73c.561 0 1.016-.454 1.016-1.015v-6.652A4.067 4.067 0 0032.937 14H15.064A4.067 4.067 0 0011 18.063v11.73a4.067 4.067 0 004.063 4.063h17.874A4.067 4.067 0 0037 29.793a1.016 1.016 0 10-2.031 0c0 1.12-.912 2.031-2.032 2.031H15.064a2.034 2.034 0 01-2.032-2.031V18.278l8.824 5.486a4.056 4.056 0 002.145.617c.742 0 1.484-.205 2.145-.617l8.824-5.486v6.437c0 .56.454 1.015 1.015 1.015zm-10.911-3.69a2.019 2.019 0 01-2.146 0l-9.048-5.627a2.02 2.02 0 011.184-.382h17.874c.442 0 .85.142 1.184.382l-9.048 5.626z" fill="#E0E0E0"/></svg>
